X:1
T:Title
%%score { 1 | 2 }
L:1/8
M:3/4
K:G
V:1 treble nm="Grand Piano"
V:2 bass 
V:1
 z2 z2[Q:1/4=100] D>E | D2 B2 c2 | B2 A2 D>E | D2 A2 B2 | [G,B,G]4 [GB]>[Ac] | [Bd]2 [ce]2 [Bd]2 | %6
 [Bd]2 B2 B>c | d2 B2 G2 | [FA]4 D>E | D2 B2 [Ec]2 | B2 A2 D>E | D2 A2 B2 | [B,G]4 [B,D]2 | %13
 [CE]2 [EG]2 [^DA]2 |[M:7/8] [DB]2 [Dd]3 [Ec]2 |[M:3/4] B2 G2 A2 |[M:2/4] G4 |[M:1/4] [Fd]>[Fc] | %18
[M:3/4] B2 B2 F2 | A2 G2 [B,D]>[B,D] | [CE]2 [EG]2 [EG]2 | D4 D2 | E2 [EG]2 [EG]>E | D2 G2 [DB]2 | %24
 [^CA]2 [CE]2 [CB]2 | [DA]4 [Fd]>[Fc] | B2 B2 F2 | A2 G2 [B,D]>[B,D] | [CE]2 [EG]2 [EG]2 | D4 D2 | %30
 E2 [EG]2 [^DA]2 |[M:7/8] [DB]2 [Dd]3 [Ec]2 |[M:3/4] B2 G2 A2 |[M:2/4] G4 |] %34
V:2
 z2 z2 [G,B,]>[G,C] | [G,B,]2 [G,D]2 [G,E]2 | [D,G,D]2 [D,F,C]2 [D,A,C]>[D,A,C] | %3
 [D,A,C]2 [D,F,C]2 [D,G,D]2 | G,,4 G,>G, | G,2 G,2 G,2 | G,2[K:treble] [G,DG]2 [G,DG]>[A,DF] | %7
 [B,DG]2 [G,DG]2[K:bass] [E,^C]2 | [D,D]4 [G,B,]>[G,C] | [G,B,]2 [G,D]2 [C,G,]2 | %10
 [D,G,D]2 [D,F,C]2 [D,A,C]>[D,A,C] | [D,A,C]2 [D,F,C]2 [D,G,D]2 | [G,,G,]4 [G,,G,]2 | %13
 [C,G,]2 [C,C]2 [C,C]2 |[M:7/8] [G,B,]2 [G,B,]3 [C,G,]2 |[M:3/4] [D,G,D]2 [D,B,D]2 [D,CD]2 | %16
[M:2/4] [G,B,D]4 |[M:1/4] [D,A,]>[D,D] |[M:3/4][K:treble] [G,DG]2 [G,DG]2[K:bass] [A,CD]2 | %19
 [F,CD]2 [G,B,D]2 [G,,G,]>[G,,G,] | [C,G,]2 [C,C]2 [C,C]2 | [G,B,]4 [G,B,]2 | %22
 [C,G,C]2 [C,C]2 [C,C]>[C,G,C] | [G,B,]2 [G,B,D]2 [G,,G,]2 | [A,,E,]2 [A,,A,]2 [A,,G,]2 | %25
 [D,F,]4 [D,A,]>[D,D] | [G,DG]2 [G,DG]2[K:bass] [A,CD]2 | [F,CD]2 [G,B,D]2 [G,,G,]>[G,,G,] | %28
 [C,G,]2 [C,C]2 [C,C]2 | [G,B,]4 [G,B,]2 | [C,G,C]2 [C,C]2 [C,C]2 | %31
[M:7/8] [G,B,]2 [G,B,]3 [C,G,]2 |[M:3/4] [D,G,D]2 [D,B,D]2 [D,CD]2 |[M:2/4] [G,B,D]4 |] %34

